nds/_inc/art.svg

<svg preserveAspectRatio="none" xmlns="http://www.w3.org/2000/svg"><g fill="#1e1e1e"><path d="m582.736 237.421v-19.424h28.752v-105.812c-.007-3.388-2.746-6.128-6.134-6.134h-222.357c-3.389.006-6.129 2.746-6.134 6.133l-.001 105.812h28.754v18.977h-1.534v-17.444h-28.753v-107.346c0-4.234 3.434-7.667 7.668-7.667l222.357.001c4.235 0 7.668 3.433 7.668 7.667v107.346l-28.753-.002v17.893z" transform="matrix(.965926 -.258819 .258819 .965926 -27.411279 133.727515)"/><path d="m413.923 347.338c-4.237 0-7.668-3.434-7.668-7.667v-114.246h1.532l.001 114.246c.006 3.388 2.747 6.127 6.135 6.135h222.356c3.388-.009 6.127-2.747 6.135-6.135l-.001-114.246h1.533l.001 114.246c0 4.232-3.434 7.667-7.668 7.667z" transform="matrix(.965926 -.258819 .258819 .965926 -56.228589 145.664318)"/><path d="m399.355 236.202v-.001-.768-.766l219.805.002c4.092-.01 7.402-3.318 7.409-7.413-.007-4.091-3.317-7.403-7.409-7.411h-219.805c-4.092.006-7.402 3.317-7.411 7.411.009 4.095 3.319 7.406 7.411 7.413v.764.768c-4.938 0-8.943-4.005-8.944-8.945.001-4.941 4.006-8.944 8.944-8.944h219.805c4.938 0 8.942 4.003 8.942 8.944 0 4.94-4.004 8.945-8.942 8.945h-219.805z" transform="matrix(.965926 -.258819 .258819 .965926 -41.465933 139.548838)"/><path d="m434.51 213.34c-2.12 0-3.834-1.716-3.836-3.834v-88.432c.002-2.117 1.716-3.834 3.836-3.834h116.29c2.118 0 3.831 1.716 3.831 3.834v88.432c0 2.116-1.713 3.833-3.831 3.833h-116.29zm-2.303-92.266v88.432c.005 1.269 1.032 2.297 2.303 2.3h116.29c1.269-.003 2.297-1.031 2.3-2.3v-88.432c-.003-1.27-1.031-2.297-2.3-2.3h-116.29c-1.272.003-2.298 1.03-2.303 2.3z" transform="matrix(.965926 -.258819 .258819 .965926 -25.993461 133.139788)"/><path d="m438.599 207.973c-1.271-.002-2.3-1.029-2.302-2.301l.002-80.763c0-1.271 1.029-2.301 2.3-2.301h108.111c1.27 0 2.299 1.03 2.299 2.301v80.763c0 1.27-1.029 2.301-2.299 2.301zm-.767-83.065-.001 80.764c.001.421.345.765.768.766h108.111c.425-.001.765-.342.767-.766v-80.764c-.002-.423-.342-.766-.767-.767h-108.111c-.423.001-.767.344-.767.767z" transform="matrix(.965926 -.258819 .258819 .965926 -25.993586 133.140148)"/><path d="m462.753 332.106v-91.819c0-1.694 1.372-3.065 3.067-3.065l118.462-.002c1.695.002 3.067 1.373 3.067 3.067v91.819c0 1.692-1.372 3.067-3.067 3.067l-118.462.001c-1.695-.001-3.067-1.376-3.067-3.068zm1.533-91.819v91.819c.002.848.687 1.53 1.534 1.533h118.462c.847-.003 1.531-.687 1.533-1.533h.001l-.001-91.819c-.002-.847-.686-1.532-1.533-1.533h-118.462c-.847.001-1.532.686-1.534 1.533z" transform="matrix(.965926 -.258819 .258819 .965926 -56.18255 145.645085)"/><path d="m470.132 328.655c-.846 0-1.533-.688-1.533-1.532v-81.85c0-.85.687-1.535 1.533-1.535h109.837c.847 0 1.533.685 1.533 1.535v81.85c0 .846-.686 1.532-1.533 1.532zm0-83.382v81.85h109.837v-81.85-.002h-109.837z" transform="matrix(.965926 -.258819 .258819 .965926 -56.182435 145.644943)"/><path d="m429.153 317.558c-.847 0-1.534-.687-1.534-1.534v-9.248h-9.25c-.847 0-1.532-.687-1.532-1.533v-10.16c0-.848.685-1.534 1.532-1.534h9.25v-9.249c0-.847.687-1.532 1.534-1.532h10.159c.847 0 1.533.685 1.533 1.532v9.249h9.249c.848 0 1.533.686 1.533 1.534v10.16c0 .847-.685 1.533-1.533 1.533h-9.249v9.248c0 .847-.687 1.533-1.533 1.533h-10.159zm0-1.534h10.159v-9.345c.004-.236.019-.568.271-.92.256-.359.733-.531 1.152-.516h9.36v-10.16h-9.313c-.303 0-.683-.065-1.01-.349-.329-.288-.466-.732-.46-1.135v-9.299h-10.158v9.33c-.002.287-.058.646-.32.97-.263.329-.712.494-1.118.484h-9.345v10.159h9.266c.3.011.631-.006 1.028.265.406.301.496.783.489 1.126v9.39z" transform="matrix(.965926 -.258819 .258819 .965926 -62.891801 122.615277)"/><path d="m597.456 235.009c0-4.023 3.261-7.284 7.283-7.284 4.024 0 7.285 3.261 7.285 7.284 0 4.022-3.261 7.285-7.285 7.285-4.022 0-7.283-3.261-7.283-7.285zm1.532 0c.006 3.177 2.576 5.745 5.751 5.752 3.178-.007 5.746-2.575 5.751-5.752-.005-3.177-2.573-5.744-5.751-5.751-3.175.007-5.745 2.574-5.751 5.751z" transform="matrix(.965926 -.258819 .258819 .965926 -40.218915 164.525939)"/><path d="m604.502 261.303c0-4.025 3.26-7.286 7.283-7.286 4.023 0 7.284 3.261 7.284 7.286 0 4.02-3.261 7.283-7.284 7.283-4.023 0-7.283-3.261-7.283-7.283zm1.531 0c.006 3.175 2.576 5.743 5.752 5.75 3.177-.007 5.745-2.575 5.75-5.75-.005-3.179-2.573-5.746-5.75-5.753-3.176.007-5.746 2.575-5.752 5.753z" transform="matrix(.965926 -.258819 .258819 .965926 -46.783713 167.245328)"/><path d="m587.91 251.724c0-4.023 3.263-7.285 7.285-7.285 4.022 0 7.284 3.262 7.284 7.285 0 4.021-3.262 7.284-7.284 7.284-4.022 0-7.285-3.261-7.285-7.284zm1.534 0c.007 3.176 2.575 5.744 5.751 5.751 3.176-.007 5.744-2.575 5.75-5.751-.006-3.178-2.574-5.747-5.75-5.751-3.176.004-5.746 2.575-5.751 5.751z" transform="matrix(.965926 -.258819 .258819 .965926 -44.870069 162.624879)"/><path d="m614.451 244.612c0-4.022 3.261-7.284 7.284-7.284 4.022 0 7.283 3.262 7.283 7.284 0 4.024-3.261 7.284-7.283 7.284-4.023 0-7.284-3.26-7.284-7.284zm1.533 0c.007 3.177 2.574 5.745 5.751 5.752 3.176-.007 5.745-2.575 5.75-5.752-.005-3.177-2.574-5.744-5.75-5.751-3.177.007-5.746 2.576-5.751 5.751z" transform="matrix(.965926 -.258819 .258819 .965926 -42.125148 169.251625)"/><path d="m599.676 295.071c0-2.259 1.831-4.09 4.09-4.09 2.257 0 4.088 1.831 4.088 4.09 0 2.258-1.831 4.087-4.088 4.087-2.261 0-4.09-1.828-4.09-4.087zm1.533 0c.003 1.409 1.144 2.552 2.557 2.554 1.411-.002 2.552-1.145 2.555-2.554-.003-1.412-1.144-2.555-2.555-2.556-1.413.001-2.554 1.144-2.557 2.556z" transform="matrix(.965926 -.258819 .258819 .965926 -55.796798 166.320082)"/><path d="m603.183 308.155c0-2.259 1.831-4.09 4.089-4.09 2.258 0 4.088 1.831 4.088 4.09 0 2.258-1.83 4.089-4.088 4.089-2.26 0-4.089-1.831-4.089-4.089zm1.532 0c.004 1.411 1.145 2.551 2.557 2.556 1.412-.005 2.554-1.145 2.555-2.556-.001-1.411-1.143-2.552-2.555-2.556-1.412.004-2.553 1.145-2.557 2.556z" transform="matrix(.965926 -.258819 .258819 .965926 -59.063967 167.673481)"/><g transform="matrix(.740623 -.198449 .198449 .740623 252.087708 155.030014)"><path d="m185.135 162.63c-1.657 0-2.999-1.344-2.999-3v-5.25c0-1.658 1.342-3 2.999-3h5.251c1.656 0 2.998 1.342 3 3v5.25c-.002 1.656-1.344 3-3 3zm-.999-8.252v5.252c0 .549.447.996.999.998h5.251c.55-.002.997-.449 1-.998v-5.252c-.002-.551-.45-.998-1-.998h-5.251c-.552 0-.999.447-.999.998z"/><path d="m408.803 162.628c-1.657 0-2.999-1.342-2.999-2.998v-5.252c0-1.655 1.342-2.998 2.999-2.998h5.251c1.656 0 2.997 1.34 2.999 2.998v5.252c-.002 1.658-1.343 2.998-2.999 2.998zm-1.001-8.25v5.252c.002.552.448.998 1.001.998h5.251c.549 0 .997-.447.999-.998v-5.252c-.002-.549-.45-.998-.999-1h-5.251c-.553.002-.999.449-1.001 1z"/></g><g transform="matrix(.740623 -.198449 .198449 .740623 252.087708 155.030014)"><path d="m185.136 38.629c-1.658 0-3-1.344-3-3v-5.251c0-1.656 1.342-3 3-3h5.25c1.658 0 3 1.343 3 3v5.251c0 1.656-1.341 3-3 3zm-1.001-8.251v5.251c.002.55.449.999 1 .999h5.25c.552 0 .999-.449 1-.999v-5.251c-.002-.55-.448-.999-1-1h-5.25c-.551.002-.998.451-1 1z"/><path d="m408.803 38.628c-1.657 0-2.999-1.343-2.999-2.999v-5.251c0-1.656 1.342-2.999 2.999-2.999h5.251c1.656 0 2.997 1.341 2.999 2.999v5.251c-.002 1.658-1.343 2.999-2.999 2.999zm-1.001-8.249v5.251c.002.553.448.999 1.001.999h5.251c.549 0 .997-.448.999-.999v-5.251c-.002-.551-.45-.999-.999-1.001h-5.251c-.553.002-.999.449-1.001 1.001z"/></g><path d="m609.026 205.363c0 .425-.344.767-.767.767h-.254c-.423 0-.767-.342-.767-.767v-9.201c0-.423.344-.766.767-.766h.254c.423 0 .767.343.767.766z" transform="matrix(.965926 -.258819 .258819 .965926 -31.239687 164.236923)"/><path d="m612.977 204.305c0 .424-.344.767-.767.767h-.254c-.423 0-.767-.343-.767-.767v-9.201c0-.423.344-.767.767-.767h.254c.423 0 .767.344.767.767z" transform="matrix(.965926 -.258818 .258818 .965926 -30.831083 165.223098)"/><path d="m510.387 228.448c0 .634-.515 1.15-1.15 1.15-.635 0-1.15-.516-1.15-1.15v-4.025c0-.637.515-1.15 1.15-1.15.635 0 1.15.513 1.15 1.15z" transform="matrix(.965926 -.258819 .258819 .965926 -41.253983 139.515792)"/><g transform="matrix(.740623 -.198449 .198449 .740623 252.087708 155.030014)"><circle cx="405.563" cy="90.942" r="1.563"/><circle cx="417.188" cy="90.942" r="1.563"/><circle cx="428.813" cy="90.942" r="1.563"/><circle cx="405.563" cy="102.317" r="1.563"/><circle cx="417.188" cy="102.317" r="1.563"/><circle cx="428.813" cy="102.317" r="1.563"/><circle cx="170.376" cy="90.942" r="1.563"/><circle cx="182.001" cy="90.942" r="1.563"/><circle cx="193.626" cy="90.942" r="1.563"/><circle cx="170.376" cy="102.317" r="1.563"/><circle cx="182.001" cy="102.317" r="1.563"/><circle cx="193.626" cy="102.317" r="1.563"/></g></g></svg>

<?xml version="1.0" encoding="utf-8"?>
<svg version="1.2" baseProfile="tiny" id="Layer_3" x="0px" y="0px" preserveAspectRatio="none" xmlns="http://www.w3.org/2000/svg">
  <path d="M 582.736 237.421 L 582.736 217.997 L 611.488 217.997 L 611.488 112.185 C 611.481 108.797 608.742 106.057 605.354 106.051 L 605.354 106.051 L 382.997 106.051 C 379.608 106.057 376.868 108.797 376.863 112.184 L 376.863 112.184 L 376.862 217.996 L 405.616 217.996 L 405.616 236.973 L 404.082 236.973 L 404.082 219.529 L 375.329 219.529 L 375.329 112.183 C 375.329 107.949 378.763 104.516 382.997 104.516 L 382.997 104.516 L 605.354 104.517 C 609.589 104.517 613.022 107.95 613.022 112.184 L 613.022 112.184 L 613.022 219.53 L 584.269 219.528 L 584.269 237.421 L 582.736 237.421 L 582.736 237.421 Z" style="fill: rgb(30, 30, 30);" transform="matrix(0.965926, -0.258819, 0.258819, 0.965926, -27.411279, 133.727515)"/>
  <path d="M 413.923 347.338 C 409.686 347.338 406.255 343.904 406.255 339.671 L 406.255 339.671 L 406.255 225.425 L 407.787 225.425 L 407.788 339.671 C 407.794 343.059 410.535 345.798 413.923 345.806 L 413.923 345.806 L 636.279 345.806 C 639.667 345.797 642.406 343.059 642.414 339.671 L 642.414 339.671 L 642.413 225.425 L 643.946 225.425 L 643.947 339.671 C 643.947 343.903 640.513 347.338 636.279 347.338 L 636.279 347.338 L 413.923 347.338 L 413.923 347.338 Z" style="fill: rgb(30, 30, 30);" transform="matrix(0.965926, -0.258819, 0.258819, 0.965926, -56.228589, 145.664318)"/>
  <path d="M 399.355 236.202 L 399.355 236.201 L 399.355 235.433 L 399.355 234.667 L 619.16 234.669 C 623.252 234.659 626.562 231.351 626.569 227.256 L 626.569 227.256 C 626.562 223.165 623.252 219.853 619.16 219.845 L 619.16 219.845 L 399.355 219.845 C 395.263 219.851 391.953 223.162 391.944 227.256 L 391.944 227.256 C 391.953 231.351 395.263 234.662 399.355 234.669 L 399.355 234.669 L 399.355 235.433 L 399.355 236.201 C 394.417 236.201 390.412 232.196 390.411 227.256 L 390.411 227.256 C 390.412 222.315 394.417 218.312 399.355 218.312 L 399.355 218.312 L 619.16 218.312 C 624.098 218.312 628.102 222.315 628.102 227.256 L 628.102 227.256 C 628.102 232.196 624.098 236.201 619.16 236.201 L 619.16 236.201 L 399.355 236.201 L 399.355 236.202 Z" style="fill: rgb(30, 30, 30);" transform="matrix(0.965926, -0.258819, 0.258819, 0.965926, -41.465933, 139.548838)"/>
  <path d="M 434.51 213.34 C 432.39 213.34 430.676 211.624 430.674 209.506 L 430.674 209.506 L 430.674 121.074 C 430.676 118.957 432.39 117.24 434.51 117.24 L 434.51 117.24 L 550.8 117.24 C 552.918 117.24 554.631 118.956 554.631 121.074 L 554.631 121.074 L 554.631 209.506 C 554.631 211.622 552.918 213.339 550.8 213.339 L 550.8 213.339 L 434.51 213.339 L 434.51 213.34 Z M 432.207 121.074 L 432.207 209.506 C 432.212 210.775 433.239 211.803 434.51 211.806 L 434.51 211.806 L 550.8 211.806 C 552.069 211.803 553.097 210.775 553.1 209.506 L 553.1 209.506 L 553.1 121.074 C 553.097 119.804 552.069 118.777 550.8 118.774 L 550.8 118.774 L 434.51 118.774 C 433.238 118.777 432.212 119.804 432.207 121.074 L 432.207 121.074 Z" style="fill: rgb(30, 30, 30);" transform="matrix(0.965926, -0.258819, 0.258819, 0.965926, -25.993461, 133.139788)"/>
  <path d="M 438.599 207.973 C 437.328 207.971 436.299 206.944 436.297 205.672 L 436.297 205.672 L 436.299 124.909 C 436.299 123.638 437.328 122.608 438.599 122.608 L 438.599 122.608 L 546.71 122.608 C 547.98 122.608 549.009 123.638 549.009 124.909 L 549.009 124.909 L 549.009 205.672 C 549.009 206.942 547.98 207.973 546.71 207.973 L 546.71 207.973 L 438.599 207.973 L 438.599 207.973 Z M 437.832 124.908 L 437.831 205.672 C 437.832 206.093 438.176 206.437 438.599 206.438 L 438.599 206.438 L 546.71 206.438 C 547.135 206.437 547.475 206.096 547.477 205.672 L 547.477 205.672 L 547.477 124.908 C 547.475 124.485 547.135 124.142 546.71 124.141 L 546.71 124.141 L 438.599 124.141 C 438.176 124.142 437.832 124.485 437.832 124.908 L 437.832 124.908 Z" style="fill: rgb(30, 30, 30);" transform="matrix(0.965926, -0.258819, 0.258819, 0.965926, -25.993586, 133.140148)"/>
  <path d="M 462.753 332.106 L 462.753 240.287 C 462.753 238.593 464.125 237.222 465.82 237.222 L 465.82 237.222 L 584.282 237.22 C 585.977 237.222 587.349 238.593 587.349 240.287 L 587.349 240.287 L 587.349 332.106 C 587.349 333.798 585.977 335.173 584.282 335.173 L 584.282 335.173 L 465.82 335.174 C 464.125 335.173 462.753 333.798 462.753 332.106 L 462.753 332.106 Z M 464.286 240.287 L 464.286 332.106 C 464.288 332.954 464.973 333.636 465.82 333.639 L 465.82 333.639 L 584.282 333.639 C 585.129 333.636 585.813 332.952 585.815 332.106 L 585.815 332.106 L 585.816 332.106 L 585.815 240.287 C 585.813 239.44 585.129 238.755 584.282 238.754 L 584.282 238.754 L 465.82 238.754 C 464.973 238.755 464.288 239.44 464.286 240.287 L 464.286 240.287 Z" style="fill: rgb(30, 30, 30);" transform="matrix(0.965926, -0.258819, 0.258819, 0.965926, -56.18255, 145.645085)"/>
  <path d="M 470.132 328.655 C 469.286 328.655 468.599 327.967 468.599 327.123 L 468.599 327.123 L 468.599 245.273 C 468.599 244.423 469.286 243.738 470.132 243.738 L 470.132 243.738 L 579.969 243.738 C 580.816 243.738 581.502 244.423 581.502 245.273 L 581.502 245.273 L 581.502 327.123 C 581.502 327.969 580.816 328.655 579.969 328.655 L 579.969 328.655 L 470.132 328.655 L 470.132 328.655 Z M 470.132 245.273 L 470.132 327.123 L 579.969 327.123 L 579.969 245.273 L 579.969 245.271 L 470.132 245.271 L 470.132 245.273 L 470.132 245.273 Z" style="fill: rgb(30, 30, 30);" transform="matrix(0.965926, -0.258819, 0.258819, 0.965926, -56.182435, 145.644943)"/>
  <path d="M 429.153 317.558 C 428.306 317.558 427.619 316.871 427.619 316.024 L 427.619 316.024 L 427.619 306.776 L 418.369 306.776 C 417.522 306.776 416.837 306.089 416.837 305.243 L 416.837 305.243 L 416.837 295.083 C 416.837 294.235 417.522 293.549 418.369 293.549 L 418.369 293.549 L 427.619 293.549 L 427.619 284.3 C 427.619 283.453 428.306 282.768 429.153 282.768 L 429.153 282.768 L 439.312 282.768 C 440.159 282.768 440.845 283.453 440.845 284.3 L 440.845 284.3 L 440.845 293.549 L 450.094 293.549 C 450.942 293.549 451.627 294.235 451.627 295.083 L 451.627 295.083 L 451.627 305.243 C 451.627 306.09 450.942 306.776 450.094 306.776 L 450.094 306.776 L 440.845 306.776 L 440.845 316.024 C 440.845 316.871 440.158 317.557 439.312 317.557 L 439.312 317.557 L 429.153 317.557 L 429.153 317.558 Z M 429.153 316.024 L 439.312 316.024 L 439.312 306.679 C 439.316 306.443 439.331 306.111 439.583 305.759 L 439.583 305.759 C 439.839 305.4 440.316 305.228 440.735 305.243 L 440.735 305.243 L 450.095 305.243 L 450.095 295.083 L 440.782 295.083 C 440.479 295.083 440.099 295.018 439.772 294.734 L 439.772 294.734 C 439.443 294.446 439.306 294.002 439.312 293.599 L 439.312 293.599 L 439.312 284.3 L 429.154 284.3 L 429.154 293.63 C 429.152 293.917 429.096 294.276 428.834 294.6 L 428.834 294.6 C 428.571 294.929 428.122 295.094 427.716 295.084 L 427.716 295.084 L 418.371 295.084 L 418.371 305.243 L 427.637 305.243 C 427.937 305.254 428.268 305.237 428.665 305.508 L 428.665 305.508 C 429.071 305.809 429.161 306.291 429.154 306.634 L 429.154 306.634 L 429.154 316.024 L 429.153 316.024 Z" style="fill: rgb(30, 30, 30);" transform="matrix(0.965926, -0.258819, 0.258819, 0.965926, -62.891801, 122.615277)"/>
  <path d="M 597.456 235.009 C 597.456 230.986 600.717 227.725 604.739 227.725 L 604.739 227.725 C 608.763 227.725 612.024 230.986 612.024 235.009 L 612.024 235.009 C 612.024 239.031 608.763 242.294 604.739 242.294 L 604.739 242.294 C 600.717 242.294 597.456 239.033 597.456 235.009 L 597.456 235.009 Z M 598.988 235.009 C 598.994 238.186 601.564 240.754 604.739 240.761 L 604.739 240.761 C 607.917 240.754 610.485 238.186 610.49 235.009 L 610.49 235.009 C 610.485 231.832 607.917 229.265 604.739 229.258 L 604.739 229.258 C 601.564 229.265 598.994 231.832 598.988 235.009 L 598.988 235.009 Z" style="fill: rgb(30, 30, 30);" transform="matrix(0.965926, -0.258819, 0.258819, 0.965926, -40.218915, 164.525939)"/>
  <path d="M 604.502 261.303 C 604.502 257.278 607.762 254.017 611.785 254.017 L 611.785 254.017 C 615.808 254.017 619.069 257.278 619.069 261.303 L 619.069 261.303 C 619.069 265.323 615.808 268.586 611.785 268.586 L 611.785 268.586 C 607.762 268.586 604.502 265.325 604.502 261.303 L 604.502 261.303 Z M 606.033 261.303 C 606.039 264.478 608.609 267.046 611.785 267.053 L 611.785 267.053 C 614.962 267.046 617.53 264.478 617.535 261.303 L 617.535 261.303 C 617.53 258.124 614.962 255.557 611.785 255.55 L 611.785 255.55 C 608.609 255.557 606.039 258.125 606.033 261.303 L 606.033 261.303 Z" style="fill: rgb(30, 30, 30);" transform="matrix(0.965926, -0.258819, 0.258819, 0.965926, -46.783713, 167.245328)"/>
  <path d="M 587.91 251.724 C 587.91 247.701 591.173 244.439 595.195 244.439 L 595.195 244.439 C 599.217 244.439 602.479 247.701 602.479 251.724 L 602.479 251.724 C 602.479 255.745 599.217 259.008 595.195 259.008 L 595.195 259.008 C 591.173 259.008 587.91 255.747 587.91 251.724 L 587.91 251.724 Z M 589.444 251.724 C 589.451 254.9 592.019 257.468 595.195 257.475 L 595.195 257.475 C 598.371 257.468 600.939 254.9 600.945 251.724 L 600.945 251.724 C 600.939 248.546 598.371 245.977 595.195 245.973 L 595.195 245.973 C 592.019 245.977 589.449 248.548 589.444 251.724 L 589.444 251.724 Z" style="fill: rgb(30, 30, 30);" transform="matrix(0.965926, -0.258819, 0.258819, 0.965926, -44.870069, 162.624879)"/>
  <path d="M 614.451 244.612 C 614.451 240.59 617.712 237.328 621.735 237.328 L 621.735 237.328 C 625.757 237.328 629.018 240.59 629.018 244.612 L 629.018 244.612 C 629.018 248.636 625.757 251.896 621.735 251.896 L 621.735 251.896 C 617.712 251.896 614.451 248.636 614.451 244.612 L 614.451 244.612 Z M 615.984 244.612 C 615.991 247.789 618.558 250.357 621.735 250.364 L 621.735 250.364 C 624.911 250.357 627.48 247.789 627.485 244.612 L 627.485 244.612 C 627.48 241.435 624.911 238.868 621.735 238.861 L 621.735 238.861 C 618.558 238.868 615.989 241.437 615.984 244.612 L 615.984 244.612 Z" style="fill: rgb(30, 30, 30);" transform="matrix(0.965926, -0.258819, 0.258819, 0.965926, -42.125148, 169.251625)"/>
  <path d="M 599.676 295.071 C 599.676 292.812 601.507 290.981 603.766 290.981 L 603.766 290.981 C 606.023 290.981 607.854 292.812 607.854 295.071 L 607.854 295.071 C 607.854 297.329 606.023 299.158 603.766 299.158 L 603.766 299.158 C 601.505 299.158 599.676 297.33 599.676 295.071 L 599.676 295.071 Z M 601.209 295.071 C 601.212 296.48 602.353 297.623 603.766 297.625 L 603.766 297.625 C 605.177 297.623 606.318 296.48 606.321 295.071 L 606.321 295.071 C 606.318 293.659 605.177 292.516 603.766 292.515 L 603.766 292.515 C 602.353 292.516 601.212 293.659 601.209 295.071 L 601.209 295.071 Z" style="fill: rgb(30, 30, 30);" transform="matrix(0.965926, -0.258819, 0.258819, 0.965926, -55.796798, 166.320082)"/>
  <path d="M 603.183 308.155 C 603.183 305.896 605.014 304.065 607.272 304.065 L 607.272 304.065 C 609.53 304.065 611.36 305.896 611.36 308.155 L 611.36 308.155 C 611.36 310.413 609.53 312.244 607.272 312.244 L 607.272 312.244 C 605.012 312.244 603.183 310.413 603.183 308.155 L 603.183 308.155 Z M 604.715 308.155 C 604.719 309.566 605.86 310.706 607.272 310.711 L 607.272 310.711 C 608.684 310.706 609.826 309.566 609.827 308.155 L 609.827 308.155 C 609.826 306.744 608.684 305.603 607.272 305.599 L 607.272 305.599 C 605.86 305.603 604.719 306.744 604.715 308.155 L 604.715 308.155 Z" style="fill: rgb(30, 30, 30);" transform="matrix(0.965926, -0.258819, 0.258819, 0.965926, -59.063967, 167.673481)"/>
  <g transform="matrix(0.740623, -0.198449, 0.198449, 0.740623, 252.087708, 155.030014)">
    <path d="M185.135,162.63c-1.657,0-2.999-1.344-2.999-3l0,0v-5.25c0-1.658,1.342-3,2.999-3l0,0h5.251&#10;&#9;&#9;c1.656,0,2.998,1.342,3,3l0,0v5.25c-0.002,1.656-1.344,3-3,3l0,0H185.135L185.135,162.63z M184.136,154.378v5.252&#10;&#9;&#9;c0,0.549,0.447,0.996,0.999,0.998l0,0h5.251c0.55-0.002,0.997-0.449,1-0.998l0,0v-5.252c-0.002-0.551-0.45-0.998-1-0.998l0,0&#10;&#9;&#9;h-5.251C184.583,153.38,184.136,153.827,184.136,154.378L184.136,154.378z" style="fill: rgb(30, 30, 30);"/>
    <path d="M408.803,162.628c-1.657,0-2.999-1.342-2.999-2.998l0,0v-5.252c0-1.655,1.342-2.998,2.999-2.998l0,0h5.251&#10;&#9;&#9;c1.656,0,2.997,1.34,2.999,2.998l0,0v5.252c-0.002,1.658-1.343,2.998-2.999,2.998l0,0H408.803L408.803,162.628z M407.802,154.378&#10;&#9;&#9;v5.252c0.002,0.552,0.448,0.998,1.001,0.998l0,0h5.251c0.549,0,0.997-0.447,0.999-0.998l0,0v-5.252&#10;&#9;&#9;c-0.002-0.549-0.45-0.998-0.999-1l0,0h-5.251C408.25,153.38,407.804,153.827,407.802,154.378L407.802,154.378z" style="fill: rgb(30, 30, 30);"/>
  </g>
  <g transform="matrix(0.740623, -0.198449, 0.198449, 0.740623, 252.087708, 155.030014)">
    <path d="M185.136,38.629c-1.658,0-3-1.344-3-3l0,0v-5.251c0-1.656,1.342-3,3-3l0,0h5.25c1.658,0,3,1.343,3,3l0,0&#10;&#9;&#9;v5.251c0,1.656-1.341,3-3,3l0,0H185.136L185.136,38.629z M184.135,30.378v5.251c0.002,0.55,0.449,0.999,1,0.999l0,0h5.25&#10;&#9;&#9;c0.552,0,0.999-0.449,1-0.999l0,0v-5.251c-0.002-0.55-0.448-0.999-1-1l0,0h-5.25C184.584,29.38,184.137,29.829,184.135,30.378&#10;&#9;&#9;L184.135,30.378z" style="fill: rgb(30, 30, 30);"/>
    <path d="M408.803,38.628c-1.657,0-2.999-1.343-2.999-2.999l0,0v-5.251c0-1.656,1.342-2.999,2.999-2.999l0,0h5.251&#10;&#9;&#9;c1.656,0,2.997,1.341,2.999,2.999l0,0v5.251c-0.002,1.658-1.343,2.999-2.999,2.999l0,0H408.803L408.803,38.628z M407.802,30.379&#10;&#9;&#9;v5.251c0.002,0.553,0.448,0.999,1.001,0.999l0,0h5.251c0.549,0,0.997-0.448,0.999-0.999l0,0v-5.251&#10;&#9;&#9;c-0.002-0.551-0.45-0.999-0.999-1.001l0,0h-5.251C408.25,29.38,407.804,29.827,407.802,30.379L407.802,30.379z" style="fill: rgb(30, 30, 30);"/>
  </g>
  <path d="M 609.026 205.363 C 609.026 205.788 608.682 206.13 608.259 206.13 L 608.005 206.13 C 607.582 206.13 607.238 205.788 607.238 205.363 L 607.238 196.162 C 607.238 195.739 607.582 195.396 608.005 195.396 L 608.259 195.396 C 608.682 195.396 609.026 195.739 609.026 196.162 L 609.026 205.363 Z" style="fill: rgb(30, 30, 30);" transform="matrix(0.965926, -0.258819, 0.258819, 0.965926, -31.239687, 164.236923)"/>
  <path d="M 612.977 204.305 C 612.977 204.729 612.633 205.072 612.21 205.072 L 611.956 205.072 C 611.533 205.072 611.189 204.729 611.189 204.305 L 611.189 195.104 C 611.189 194.681 611.533 194.337 611.956 194.337 L 612.21 194.337 C 612.633 194.337 612.977 194.681 612.977 195.104 L 612.977 204.305 Z" style="fill: rgb(30, 30, 30);" transform="matrix(0.965926, -0.258818, 0.258818, 0.965926, -30.831083, 165.223098)"/>
  <path d="M 510.387 228.448 C 510.387 229.082 509.872 229.598 509.237 229.598 L 509.237 229.598 C 508.602 229.598 508.087 229.082 508.087 228.448 L 508.087 224.423 C 508.087 223.786 508.602 223.273 509.237 223.273 L 509.237 223.273 C 509.872 223.273 510.387 223.786 510.387 224.423 L 510.387 228.448 Z" style="fill: rgb(30, 30, 30);" transform="matrix(0.965926, -0.258819, 0.258819, 0.965926, -41.253983, 139.515792)"/>
  <g transform="matrix(0.740623, -0.198449, 0.198449, 0.740623, 252.087708, 155.030014)">
    <g>
      <circle cx="405.563" cy="90.942" r="1.563" style="fill: rgb(30, 30, 30);"/>
      <circle cx="417.188" cy="90.942" r="1.563" style="fill: rgb(30, 30, 30);"/>
      <circle cx="428.813" cy="90.942" r="1.563" style="fill: rgb(30, 30, 30);"/>
      <circle cx="405.563" cy="102.317" r="1.563" style="fill: rgb(30, 30, 30);"/>
      <circle cx="417.188" cy="102.317" r="1.563" style="fill: rgb(30, 30, 30);"/>
      <circle cx="428.813" cy="102.317" r="1.563" style="fill: rgb(30, 30, 30);"/>
    </g>
    <g>
      <circle cx="170.376" cy="90.942" r="1.563" style="fill: rgb(30, 30, 30);"/>
      <circle cx="182.001" cy="90.942" r="1.563" style="fill: rgb(30, 30, 30);"/>
      <circle cx="193.626" cy="90.942" r="1.563" style="fill: rgb(30, 30, 30);"/>
      <circle cx="170.376" cy="102.317" r="1.563" style="fill: rgb(30, 30, 30);"/>
      <circle cx="182.001" cy="102.317" r="1.563" style="fill: rgb(30, 30, 30);"/>
      <circle cx="193.626" cy="102.317" r="1.563" style="fill: rgb(30, 30, 30);"/>
    </g>
  </g>
</svg>
